build/img/icon-fb.svg

<svg viewBox="0 0 6 11" fill="white" xmlns="http://www.w3.org/2000/svg">
<path d="M3.66572 3.98786V2.65633C3.66572 2.28883 3.96398 1.99057 4.33148 1.99057H4.99724V0.326172H3.66572C2.56255 0.326172 1.66844 1.22029 1.66844 2.32345V3.98786H0.336914V5.65226H1.66844V10.9783H3.66572V5.65226H4.99724L5.663 3.98786H3.66572Z"/>
</svg>

<svg viewBox="0 0 6 11" fill="#fff" xmlns="http://www.w3.org/2000/svg"><path d="M3.666 3.988V2.656c0-.367.298-.665.665-.665h.666V.326H3.666a1.997 1.997 0 00-1.998 1.997v1.665H.337v1.664h1.331v5.326h1.998V5.652h1.331l.666-1.664H3.666z"/></svg>
